logos/c-sharp.svg

<?xml version="1.0" encoding="UTF-8"?>
<svg width="256px" height="256px" viewBox="0 0 256 256" version="1.1" xmlns="http://www.w3.org/2000/svg" preserveAspectRatio="xMidYMid">
    <title>C#</title>
    <g>
        <circle fill="#05930C" cx="128" cy="128" r="128"></circle>
        <path d="M38.9025888,36.0996419 L219.736207,217.266384 C196.482539,241.159369 163.974377,256 128,256 C57.307552,256 0,198.692448 0,128 C0,91.9408943 14.9106206,59.3643506 38.9025888,36.0996419 Z" fill-opacity="0.1" fill="#FFFFFF"></path>
        <path d="M121.72,174.2 C113.012357,178.436699 103.397317,180.469593 93.72,180.12 C80.781669,180.687012 68.2281624,175.642281 59.28,166.28 C50.3887459,156.313218 45.7513402,143.262439 46.36,129.92 C45.7341533,115.461218 50.986133,101.364559 60.92,90.84 C70.6307317,80.905133 84.0759119,75.5183492 97.96,76 C106.070463,75.6904785 114.157941,77.0520068 121.72,80 L121.72,92.6 C114.385477,88.52346 106.110425,86.4409051 97.72,86.56 C87.1508846,86.2096556 76.9448113,90.437886 69.72,98.16 C62.2299693,106.698203 58.356638,117.816099 58.92,129.16 C58.3659356,139.880667 61.9776495,150.4005 69,158.52 C75.8132352,165.845413 85.4836446,169.833362 95.48,169.44 C104.697583,169.669064 113.797049,167.32841 121.76,162.68 L121.72,174.2 Z M211.04,105.84 L209.44,113.28 L191.04,113.28 L186.64,134.4 L206.4,134.4 L204.52,141.84 L185.16,141.84 L178.96,169.84 L170.12,169.84 L176.16,141.84 L158.56,141.84 L152.64,169.84 L144,169.84 L149.92,141.84 L131.36,141.84 L132.76,134.4 L151.4,134.4 L155.68,113.32 L136.2,113.32 L137.68,105.88 L157.16,105.88 L163.08,77.6 L172,77.6 L166.08,105.88 L183.8,105.88 L189.84,77.6 L198.48,77.6 L192.56,105.88 L211.04,105.84 Z M182.36,113.28 L164.6,113.28 L160,134.4 L177.84,134.4 L182.36,113.28 Z" fill="#FFFFFF"></path>
    </g>
</svg>

<svg preserveAspectRatio="xMidYMid" viewBox="0 0 256 256" xmlns="http://www.w3.org/2000/svg">
  <circle cx="128" cy="128" r="128" fill="#05930C"/>
  <path fill="#FFF" fill-opacity=".1" d="m38.903 36.1 180.833 181.166C196.483 241.16 163.974 256 128 256 57.308 256 0 198.692 0 128c0-36.06 14.91-68.636 38.903-91.9Z"/>
  <path fill="#FFF" d="M121.72 174.2a59.12 59.12 0 0 1-28 5.92 44.92 44.92 0 0 1-34.44-13.84 51.12 51.12 0 0 1-12.92-36.36 53.56 53.56 0 0 1 14.56-39.08A49.4 49.4 0 0 1 97.96 76a59.2 59.2 0 0 1 23.76 4v12.6a48 48 0 0 0-24-6.04 36.68 36.68 0 0 0-28 11.6 43.72 43.72 0 0 0-10.8 31A41.6 41.6 0 0 0 69 158.52a34.32 34.32 0 0 0 26.48 10.92 49.68 49.68 0 0 0 26.28-6.76l-.04 11.52Zm89.32-68.36-1.6 7.44h-18.4l-4.4 21.12h19.76l-1.88 7.44h-19.36l-6.2 28h-8.84l6.04-28h-17.6l-5.92 28H144l5.92-28h-18.56l1.4-7.44h18.64l4.28-21.08H136.2l1.48-7.44h19.48l5.92-28.28H172l-5.92 28.28h17.72l6.04-28.28h8.64l-5.92 28.28 18.48-.04Zm-28.68 7.44H164.6L160 134.4h17.84l4.52-21.12Z"/>
</svg>
